static/images/mobile/copyright/wikipedia-tagline-lad.svg

<?xml version="1.0" encoding="UTF-8"?>
<svg width="120px" height="12px" viewBox="0 0 120 12" version="1.1" xmlns="http://www.w3.org/2000/svg" xmlns:xlink="http://www.w3.org/1999/xlink">
    <title>lad-tagline</title>
    <g id="Page-1" stroke="none" stroke-width="1" fill="none" fill-rule="evenodd">
        <path d="M1.27306683,2.01161978 C1.30233434,2.22485913 1.3211493,2.34193142 1.32951171,2.36283665 C1.37132253,2.50499222 1.44658361,2.57607001 1.55529496,2.57607001 L4.1141779,2.57607001 C4.74971867,2.57607001 5.22426488,2.65551288 5.53781653,2.81439863 C5.97265075,3.04017513 6.19006785,3.44784212 6.19006785,4.03739962 L6.19006785,4.84644105 L6.12744934,8.04501334 C5.90584762,8.50911547 5.58388951,8.91258342 5.16157503,9.25541721 L5.21801991,5.10358439 C5.22638232,4.1712171 4.94833943,3.70503345 4.38389126,3.70503345 L0,3.70503345 C0.334484041,3.07373747 0.758839652,2.50926625 1.27306683,2.01161978 Z M1.73720578,4.38858951 C1.72049864,4.75652157 1.71213623,5.10774144 1.71213623,5.44224913 L1.68077765,7.94466824 C1.44663758,8.42967559 1.12260113,8.85404877 0.708668287,9.21778779 L0.708929606,9.16256264 C0.710845944,8.87638959 0.723302145,7.66972746 0.746298207,5.54257624 C1.02225343,5.18300027 1.35255596,4.79833803 1.73720578,4.38858951 Z M12.1227687,8.36019344 C11.8760841,8.73231255 11.5896782,9.0542591 11.2635509,9.3260331 L11.1945624,5.92049002 C11.1694758,4.44038769 10.7931704,3.70033652 10.0656462,3.70033652 L7.0113095,3.70033652 C7.16600697,3.08571674 7.57159539,2.51290742 8.22807476,1.98190856 L8.28451964,2.38329798 C8.32214956,2.50873537 8.40159216,2.57145406 8.52284743,2.57145406 L10.3479488,2.57145406 C11.5312433,2.57145406 12.1228906,3.56446752 12.1228906,5.55049443 L12.1228906,8.36028342 L12.1227687,8.36019344 Z M16.2432058,4.32479406 C16.2432058,4.67600793 16.0801453,5.10664969 15.7540243,5.61671932 C15.6411296,5.78814222 15.3317222,6.20624683 14.8258023,6.87103317 L14.0606593,7.10308123 C14.7965192,5.99927305 15.1644492,5.21951094 15.1644492,4.76379491 C15.1644492,4.37077057 14.7442503,3.94639739 13.9038525,3.49067535 L13.0948129,3.05792808 C13.1282613,3.01611702 13.4146672,2.63772334 13.9540307,1.92274705 L14.750535,2.462111 C15.7455992,3.13527743 16.2431314,3.75616578 16.2431314,4.32477606 L16.2432058,4.32479406 Z M22.6723795,7.64638628 L21.9260533,8.77526875 L16.8397419,8.77526875 L17.5986125,7.64638628 L20.8222262,7.64638628 C20.8222262,7.57112745 20.8243167,7.46242025 20.8284976,7.32026468 C20.8326785,7.17392207 20.8347689,7.06312135 20.8347689,6.98786252 C20.8347689,5.4826859 20.7448756,4.4855034 20.5650891,3.996315 C20.5190967,3.87506466 20.4835569,3.79980583 20.4584697,3.7705385 C20.4124774,3.7245464 20.3246749,3.70155034 20.1950621,3.70155034 L17.0466413,3.70155034 C17.3267718,3.07439342 17.7114217,2.5099222 18.2005908,2.00813667 L18.3448344,2.5725869 L20.5149109,2.5725869 C21.0459137,2.5725869 21.4054993,2.75864645 21.5936675,3.13076556 C21.714919,3.37327224 21.7755448,3.76420305 21.7755448,4.303558 C21.7755448,5.24852242 21.7483675,6.36276822 21.6940127,7.64629541 L22.6723795,7.64629541 L22.6723795,7.64638628 Z M26.2026273,4.32479406 C26.2026273,4.67600793 26.0395668,5.10664969 25.7134458,5.61671932 C25.6005511,5.78814222 25.2911437,6.20624683 24.7852237,6.87103317 L24.0200808,7.10308123 C24.7559407,5.99927305 25.1238707,5.21951094 25.1238707,4.76379491 C25.1238707,4.37077057 24.7036717,3.94639739 23.8632739,3.49067535 L23.0542344,3.05792808 C23.0876828,3.01611702 23.3740887,2.63772334 23.9134521,1.92274705 L24.7099564,2.462111 C25.7050207,3.13527743 26.2025528,3.75616578 26.2025528,4.32477606 L26.2026273,4.32479406 Z M31.8979263,3.89471917 C31.8979263,5.09888446 31.4024725,6.26330881 30.4115649,7.38799223 C29.7969565,8.07789484 28.7224186,8.66744035 27.1879512,9.15662874 L27.827658,7.73297353 C28.6555237,7.54482046 29.2805797,7.32322201 29.7028259,7.06817819 C30.0749436,6.8424017 30.3655279,6.50581849 30.5745789,6.05842855 C30.775273,5.63195585 30.8756201,5.17620982 30.8756201,4.69119047 C30.8756201,4.03056118 30.6686537,3.70024654 30.2547209,3.70024654 L27.8903342,3.70024654 C27.57257,3.70024654 27.3614252,3.67306914 27.2568997,3.61871434 C27.1649126,3.57690328 27.1147406,3.48492026 27.1063838,3.3427653 C27.0896589,2.97483323 27.0729347,2.60900669 27.0562112,2.24528567 C27.0102188,1.81463192 26.907781,1.44667586 26.7488977,1.1414175 L27.6332045,2.78936363e-05 C27.8129911,0.250890663 27.9028844,0.556131027 27.9028844,0.915748985 L27.9028844,1.77497197 C27.9028844,2.30597682 27.9802331,2.57147925 28.1349306,2.57147925 L30.819259,2.57147925 C31.2791823,2.57147925 31.5844112,2.69273259 31.7349458,2.93523927 C31.8436528,3.11503025 31.8980063,3.43487728 31.8980063,3.89478036 L31.8979263,3.89471917 Z M36.820108,2.0115388 C36.8493755,2.22477815 36.8681904,2.34185044 36.8765529,2.36275567 C36.9183637,2.50491124 36.9936248,2.57598902 37.1023361,2.57598902 L39.661219,2.57598902 C40.2967598,2.57598902 40.771306,2.6554319 41.0848577,2.81431765 C41.5196919,3.04009415 41.737109,3.44776114 41.737109,4.03731864 L41.737109,4.84636007 L41.6744905,8.04493236 C41.4528888,8.50903448 41.1309307,8.91250244 40.7086162,9.25533623 L40.7650611,5.10350341 C40.7734235,4.17113611 40.4953806,3.70495247 39.9309324,3.70495247 L35.5470411,3.70495247 C35.8815252,3.07365649 36.3058808,2.50918526 36.820108,2.0115388 Z M37.2842479,4.38850852 C37.2675398,4.75644059 37.2591774,5.10766046 37.2591774,5.44216815 L37.2278188,7.94458725 C36.9936787,8.42959461 36.6696423,8.85396779 36.2557094,9.21770681 L36.2559708,9.16248166 C36.2578871,8.87630861 36.2703437,7.66964648 36.2933403,5.54249526 C36.5692955,5.18291929 36.899598,4.79825705 37.2842479,4.38850852 Z M46.5606783,1.92271916 L47.3571826,2.46208311 C48.3522469,3.13524954 48.849779,3.75613789 48.849779,4.32474817 C48.8498162,4.67598004 48.6867557,5.1066218 48.3606347,5.61669143 C48.2519277,5.78811432 47.9446235,6.20621894 47.4387221,6.87100528 L46.6673069,7.10305334 C47.4031668,5.99924516 47.7710968,5.21948305 47.7710968,4.76376701 C47.7710968,4.37074268 47.3508979,3.94636949 46.5105001,3.49064746 L45.7014605,3.05790018 C45.7349089,3.01608912 46.0213148,2.63769545 46.5606783,1.92271916 Z M43.4561447,1.92271916 L44.252649,2.46208311 C45.2477133,3.13524954 45.7452455,3.75613789 45.7452455,4.32474817 C45.7453199,4.67598004 45.5822594,5.1066218 45.2561384,5.61669143 C45.1432437,5.78811432 44.8338363,6.20621894 44.3279163,6.87100528 L43.5627734,7.10305334 C44.2986333,5.99924516 44.6665633,5.21948305 44.6665633,4.76376701 C44.6665633,4.37074268 44.2463644,3.94636949 43.4059665,3.49064746 L42.596927,3.05790018 C42.6303754,3.01608912 42.9167813,2.63769545 43.4561447,1.92271916 Z M55.1593141,2.57700489 L54.6450342,3.70588735 L53.9488863,3.70588735 L53.9488863,8.21520862 C53.7147462,8.49533871 53.3948975,8.80681765 52.9893401,9.14964544 L52.9893401,3.70579737 L49.5336336,3.70579737 C49.9810124,3.04096905 50.434651,2.44932402 50.8945495,1.9308623 C50.9154553,2.16500688 50.9426326,2.31970859 50.9760817,2.39496742 C51.0262549,2.51621776 51.1182389,2.57684293 51.2520338,2.57684293 L53.3091348,2.57684293 C53.518192,2.32598016 53.7481537,2.11483433 53.9990198,1.94340544 L53.9990198,2.57684293 L55.1593141,2.57684293 L55.1593141,2.57700489 Z M58.815845,4.32476617 C58.815845,4.67598004 58.6527845,5.1066218 58.3266635,5.61669143 C58.2137687,5.78811432 57.9043614,6.20621894 57.3984414,6.87100528 L56.6332984,7.10305334 C57.3691584,5.99924516 57.7370883,5.21948305 57.7370883,4.76376701 C57.7370883,4.37074268 57.3168894,3.94636949 56.4764916,3.49064746 L55.6674521,3.05790018 C55.7009005,3.01608912 55.9873064,2.63769545 56.5266698,1.92271916 L57.3231741,2.46208311 C58.3182384,3.13524954 58.8157705,3.75613789 58.8157705,4.32474817 L58.815845,4.32476617 Z M64.6044836,5.56009434 C64.6044836,6.0367456 64.5647654,6.68273823 64.485329,7.49807222 C64.4142494,7.69040034 64.1842878,8.11477353 63.795444,8.77119178 L59.3363599,8.77119178 C59.5872261,8.39489162 59.8109155,8.01859747 60.0074281,7.64230931 L63.6637728,7.64230931 C63.7348524,7.24510393 63.7703922,6.85417312 63.7703922,6.46951687 C63.7703922,5.79635044 63.6763174,5.12111449 63.4881678,4.44380901 C62.9697156,3.9629827 62.1983066,3.54697761 61.1739407,3.19579372 C60.8729026,3.45501859 60.7223835,3.78113419 60.7223835,4.17414053 C60.7223835,4.4250033 60.8248214,4.64451122 61.029697,4.8326643 C61.1258595,4.92046626 61.3202814,5.04799117 61.6129626,5.21523902 L60.9920634,6.14967584 C60.5488661,5.87790784 60.2750048,5.69394181 60.1704793,5.59777775 C59.8903487,5.34691498 59.7502835,5.06887241 59.7502835,4.76365004 C59.7502835,4.28282373 59.9656098,3.73298917 60.3962625,3.11414635 C60.7683802,2.58314149 61.1258564,2.21311591 61.468691,2.0040696 C62.0832994,2.17967354 62.6791034,2.44935401 63.2561029,2.81311103 C63.8163702,3.1643249 64.2177709,3.51134574 64.460305,3.85417352 C64.5564675,4.40608361 64.6045487,4.97472389 64.6045487,5.56009434 L64.6044836,5.56009434 Z M68.304939,4.65418101 L68.2547664,8.22276689 C67.9997187,8.62833437 67.7049498,8.97955424 67.3704595,9.27642651 L67.2762079,5.03974305 C67.2678455,4.53383047 67.0755144,4.15753632 66.6992146,3.91086059 L65.4009283,3.05163761 L66.1848881,1.94156086 L67.7778967,3.07674188 C68.0245814,3.24816478 68.1834634,3.48857793 68.254543,3.79798134 C68.2963538,3.96940424 68.313078,4.2558119 68.3047156,4.65720432 L68.304939,4.65418101 Z M74.1182386,3.89469128 C74.1182386,5.09885657 73.6227848,6.26328092 72.6318772,7.38796434 C72.0172689,8.07786695 70.942731,8.66741245 69.4082636,9.15660085 L70.0479703,7.73294564 C70.875836,7.54479256 71.500892,7.32319412 71.9231382,7.0681503 C72.2952559,6.84237381 72.5858402,6.5057906 72.7948912,6.05840066 C72.9955854,5.63192795 73.0959324,5.17618193 73.0959324,4.69116258 C73.0959324,4.03053329 72.888966,3.70021865 72.4750332,3.70021865 L70.1106465,3.70021865 C69.7928824,3.70021865 69.5817375,3.67304125 69.477212,3.61868645 C69.3852249,3.57687539 69.3350529,3.48489237 69.3266961,3.3427374 C69.3099713,2.97480534 69.2932471,2.6089788 69.2765235,2.24525778 C69.2305311,1.81460402 69.1280933,1.44664797 68.96921,1.14138961 L69.8535168,-6.21724894e-15 C70.0333034,0.250862769 70.1231967,0.556103133 70.1231967,0.915721091 L70.1231967,1.77494407 C70.1231967,2.30594893 70.2005454,2.57145136 70.3552429,2.57145136 L73.0395713,2.57145136 C73.4994946,2.57145136 73.8047236,2.6927047 73.9552581,2.93521137 C74.0639651,3.11500236 74.1183186,3.43484939 74.1183186,3.89475247 L74.1182386,3.89469128 Z M76.4511801,4.27737398 L76.8463054,10.2103505 C76.6748819,10.6619994 76.421925,11.0612983 76.0874348,11.4083371 L75.5794271,5.73243203 C75.7633952,5.19725212 76.0539795,4.71223277 76.4511801,4.27737398 Z M76.2693493,1.96949049 L76.3195219,2.35832778 C76.3446085,2.50048335 76.4177788,2.57156113 76.5390329,2.57156113 L80.6344368,2.57156113 C80.9480194,2.57156113 81.1926164,2.70535761 81.3682276,2.97295056 C81.5145683,3.19872706 81.5877386,3.46631701 81.5877386,3.77572042 C81.5877386,5.14714555 81.1591605,6.34294275 80.3020118,7.36313001 C79.6831971,8.09898213 78.729886,8.63834908 77.4420784,8.98123086 C77.5842313,8.67600849 77.7765624,8.23489912 78.0190717,7.65790276 C78.6127849,7.5533766 79.1730398,7.3087824 79.6998363,6.92412016 C80.2642851,6.51437164 80.5465095,5.81196188 80.5465095,4.81689089 C80.5465095,4.07264068 80.3332739,3.70051558 79.9068028,3.70051558 L74.9584999,3.70051558 C75.2846209,3.01901106 75.7215707,2.44200269 76.2693493,1.96949049 Z M85.5078129,4.32479316 C85.5078129,4.67600703 85.3447524,5.10664879 85.0186314,5.61671842 C84.9057367,5.78814132 84.5963293,6.20624593 84.0904093,6.87103227 L83.3252664,7.10308033 C84.0611263,5.99927215 84.4290563,5.21951004 84.4290563,4.76379401 C84.4290563,4.37076967 84.0088574,3.94639649 83.1684595,3.49067445 L82.35942,3.05792718 C82.3928684,3.01611612 82.6792743,2.63772244 83.2186377,1.92274615 L84.0151421,2.4621101 C85.0102063,3.13527653 85.5077385,3.75616488 85.5077385,4.32477516 L85.5078129,4.32479316 Z M87.6041855,1.8782693 C87.6459963,2.03715505 87.7108036,2.26920611 87.7986073,2.57442248 L92.0194567,2.57442248 C92.7386278,2.57442248 93.0982133,3.20367893 93.0982133,4.46219181 C93.0981017,5.36514182 92.7280934,6.31427529 91.9880767,7.30944825 C91.1727432,8.40071929 90.2884518,8.94635482 89.3352027,8.94635482 C88.8209259,8.94635482 88.4571527,8.81464886 88.2438829,8.55123696 C88.0724594,8.34217865 87.8968512,7.88643262 87.7170585,7.18399887 L87.114976,4.794504 C86.9519155,4.1506109 86.6487836,3.75761055 86.2055801,3.61550297 C86.6320513,3.01342033 87.0982531,2.43434244 87.6041855,1.8782693 Z M91.6493553,3.70315198 L87.9741193,3.70315198 L88.7455346,6.96436798 C88.8166141,7.2654093 88.8835122,7.46819304 88.9462287,7.57271919 C89.0507604,7.74832313 89.2117332,7.8361251 89.4291472,7.8361251 C90.1483183,7.8361251 90.7692176,7.55389848 91.291845,6.98944526 C91.8144849,6.42499203 92.0758327,5.75809417 92.0758327,4.98875169 C92.0758327,4.44950771 91.9336736,4.02093548 91.6493553,3.70315198 Z M96.8315004,5.18493393 C96.8315004,5.49433734 96.8064138,6.25946279 96.7562406,7.48031027 L96.0224497,8.77862408 L93.5074913,8.77862408 C93.6454689,8.55702264 93.8461631,8.18072848 94.1095737,7.64974162 L95.8969856,7.64974162 C95.9555213,7.15637217 95.9847891,6.71943186 95.9847891,6.33892066 C95.9847891,5.71596278 95.9304356,5.10761157 95.8217286,4.51386702 C95.3283593,3.92850857 94.7241799,3.45815587 94.0091904,3.10280894 L94.7304274,2.0115379 C95.441223,2.39201909 96.1081252,2.927187 96.7311338,3.61704162 C96.7980319,4.03515224 96.8315004,4.55778301 96.8315004,5.18493393 L96.8315004,5.18493393 Z M104.545406,7.96664932 L103.96838,9.20215746 C103.23252,8.15269688 102.241582,6.98197396 100.995564,5.68998871 C100.727972,5.41403366 100.34751,5.03357046 99.854178,4.5485991 C99.4193438,5.07960396 99.2061082,5.7360342 99.2144712,6.51788984 C99.2186527,6.8774658 99.2604648,7.25375996 99.3399074,7.6467723 L100.174036,7.6467723 L99.6472116,8.77565476 L97.9790101,8.77565476 L98.1859765,8.17357511 C98.1525275,7.84745351 98.135803,7.60285931 98.135803,7.43979252 C98.135803,6.81683464 98.2507823,6.24192579 98.4807408,5.71506599 C98.6354383,5.36803916 98.949021,4.85167696 99.4214888,4.16597939 L97.8660766,2.91796411 L98.5685061,1.99603443 C99.2667697,2.52285225 100.165702,3.32771863 101.265305,4.41063358 C101.566343,4.70330681 101.97401,5.12141142 102.488305,5.66494742 C102.78098,5.21338844 102.927318,4.7388367 102.927318,4.24129221 C102.927318,3.85244892 102.833243,3.52213427 102.645093,3.25034828 L103.604639,2.00854158 C103.909865,2.66497182 104.060384,3.16879688 104.056197,3.52001676 C104.052015,3.92558423 103.905678,4.38133026 103.617184,4.88725484 C103.366318,5.28446022 103.113361,5.68165961 102.858313,6.078853 C103.456214,6.66002441 104.018578,7.28928085 104.545406,7.96662233 L104.545406,7.96664932 Z M109.300046,2.0115379 C109.329314,2.22477725 109.348129,2.34184954 109.356491,2.36275477 C109.398302,2.50491034 109.473563,2.57598812 109.582274,2.57598812 L112.141157,2.57598812 C112.776698,2.57598812 113.251244,2.655431 113.564796,2.81431675 C113.99963,3.04009325 114.217047,3.44776024 114.217047,4.03731774 L114.217047,4.84635917 L114.154429,8.04493146 C113.932827,8.50903358 113.610869,8.91250154 113.188555,9.25533533 L113.244999,5.10350251 C113.253362,4.17113521 112.975319,3.70495157 112.410871,3.70495157 L108.02698,3.70495157 C108.361464,3.07365559 108.785819,2.50918436 109.300046,2.0115379 Z M109.764186,4.38850762 C109.747478,4.75643969 109.739116,5.10765956 109.739116,5.44216725 L109.707758,7.94458635 C109.473618,8.42959371 109.149582,8.85396689 108.735649,9.21770591 L108.73591,9.16248076 C108.737826,8.87630771 108.750283,7.66964558 108.773279,5.54249436 C109.049234,5.18291839 109.379536,4.79825615 109.764186,4.38850762 Z M119.999921,3.89469128 C119.999921,5.09885657 119.504467,6.26328092 118.51356,7.38796434 C117.898951,8.07786695 116.824413,8.66741245 115.289946,9.15660085 L115.929653,7.73294564 C116.757518,7.54479256 117.382574,7.32319412 117.804821,7.0681503 C118.176938,6.84237381 118.467523,6.5057906 118.676574,6.05840066 C118.877268,5.63192795 118.977615,5.17618193 118.977615,4.69116258 C118.977615,4.03053329 118.770648,3.70021865 118.356715,3.70021865 L115.992329,3.70021865 C115.674565,3.70021865 115.46342,3.67304125 115.358894,3.61868645 C115.266907,3.57687539 115.216735,3.48489237 115.208378,3.3427374 C115.191654,2.97480534 115.174929,2.6089788 115.158205,2.24525778 C115.112213,1.81460402 115.009775,1.44664797 114.850891,1.14138961 L115.735198,-6.21724894e-15 C115.914985,0.250862769 116.004878,0.556103133 116.004878,0.915721091 L116.004878,1.77494407 C116.004878,2.30594893 116.082227,2.57145136 116.236924,2.57145136 L118.921253,2.57145136 C119.381176,2.57145136 119.686405,2.6927047 119.836939,2.93521137 C119.945646,3.11500236 120,3.43484939 120,3.89475247 L119.999921,3.89469128 Z" id="lad-tagline" fill="#000000"></path>
    </g>
</svg>

<svg xmlns="http://www.w3.org/2000/svg" width="120" height="12"><path fill="#000" fill-rule="evenodd" d="M1.273 2.012c.03.213.048.33.057.35.041.143.117.214.225.214h2.56c.635 0 1.11.08 1.423.238.435.226.652.634.652 1.223v.81l-.063 3.198a3.48 3.48 0 0 1-.965 1.21l.056-4.151c.008-.933-.27-1.399-.834-1.399H0a6.722 6.722 0 0 1 1.273-1.693Zm.464 2.377c-.017.368-.025.719-.025 1.053l-.031 2.503c-.234.485-.558.909-.972 1.273v-.055c.002-.287.014-1.493.037-3.62.276-.36.607-.745.991-1.154ZM12.123 8.36a4.442 4.442 0 0 1-.86.966l-.068-3.406c-.026-1.48-.402-2.22-1.13-2.22H7.012c.155-.614.56-1.187 1.217-1.718l.057.401c.037.126.117.188.238.188h1.825c1.183 0 1.775.993 1.775 2.98v2.81Zm4.12-4.035c0 .351-.163.782-.489 1.292-.113.171-.422.59-.928 1.254l-.765.232c.736-1.104 1.103-1.883 1.103-2.34 0-.392-.42-.817-1.26-1.272l-.81-.433c.034-.042.32-.42.86-1.135l.797.54c.995.672 1.492 1.293 1.492 1.862Zm6.43 3.321-.747 1.13H16.84l.759-1.13h3.223c0-.075.002-.184.006-.326.005-.146.007-.257.007-.332 0-1.505-.09-2.502-.27-2.992a.946.946 0 0 0-.107-.225c-.046-.046-.133-.07-.263-.07h-3.148A5.798 5.798 0 0 1 18.2 2.009l.144.565h2.17c.53 0 .89.186 1.079.558.12.242.182.633.182 1.173 0 .945-.028 2.059-.082 3.342h.978Zm3.53-3.321c0 .351-.163.782-.49 1.292-.112.171-.422.59-.928 1.254l-.765.232c.736-1.104 1.104-1.883 1.104-2.34 0-.392-.42-.817-1.26-1.272l-.81-.433c.034-.042.32-.42.86-1.135l.796.54c.995.672 1.493 1.293 1.493 1.862Zm5.695-.43c0 1.204-.496 2.368-1.486 3.493-.615.69-1.69 1.28-3.224 1.769l.64-1.424c.828-.188 1.453-.41 1.875-.665.372-.226.663-.562.872-1.01.2-.426.3-.882.3-1.367 0-.66-.206-.99-.62-.99H27.89c-.317 0-.529-.028-.633-.082-.092-.042-.142-.134-.15-.276l-.05-1.098a3.09 3.09 0 0 0-.308-1.104L27.633 0c.18.25.27.556.27.916v.859c0 .531.077.796.232.796h2.684c.46 0 .765.122.916.364.109.18.163.5.163.96Zm4.922-1.883c.03.213.048.33.057.35.041.143.117.214.225.214h2.56c.635 0 1.11.08 1.423.238.435.226.652.634.652 1.223v.81l-.063 3.198a3.48 3.48 0 0 1-.965 1.21l.056-4.151c.008-.933-.27-1.399-.834-1.399h-4.384a6.722 6.722 0 0 1 1.273-1.693Zm.464 2.377c-.016.367-.025.719-.025 1.053l-.031 2.503c-.234.485-.558.909-.972 1.273v-.056c.002-.286.014-1.492.037-3.62.276-.36.607-.744.991-1.153Zm9.277-2.466.796.54c.995.672 1.493 1.293 1.493 1.862 0 .351-.163.782-.49 1.292-.108.171-.415.59-.921 1.254l-.772.232c.736-1.104 1.104-1.884 1.104-2.34 0-.392-.42-.817-1.26-1.272l-.81-.433c.034-.042.32-.42.86-1.135Zm-3.105 0 .797.54c.995.672 1.492 1.293 1.492 1.862 0 .351-.163.782-.489 1.292-.113.171-.422.59-.928 1.254l-.765.232c.736-1.104 1.104-1.884 1.104-2.34 0-.392-.42-.817-1.261-1.272l-.81-.433c.034-.042.32-.42.86-1.135Zm11.703.654-.514 1.129h-.696v4.51c-.234.28-.554.59-.96.934V3.706h-3.455a16.84 16.84 0 0 1 1.36-1.775c.021.234.049.389.082.464.05.121.142.182.276.182h2.057c.21-.251.44-.462.69-.634v.634h1.16Zm3.657 1.748c0 .351-.163.782-.49 1.292-.112.171-.422.59-.928 1.254l-.765.232C57.37 6 57.737 5.22 57.737 4.763c0-.392-.42-.817-1.26-1.272l-.81-.433c.034-.042.32-.42.86-1.135l.796.54c.995.672 1.493 1.293 1.493 1.862Zm5.788 1.235c0 .477-.04 1.123-.119 1.938-.07.192-.3.617-.69 1.273h-4.459c.251-.376.475-.752.671-1.129h3.657c.07-.397.106-.788.106-1.172a7.54 7.54 0 0 0-.282-2.026c-.518-.481-1.29-.897-2.314-1.248-.301.259-.452.585-.452.978 0 .251.103.47.308.659.096.087.29.215.583.382l-.62.935c-.444-.272-.718-.456-.823-.552-.28-.251-.42-.53-.42-.834 0-.481.216-1.031.646-1.65.372-.53.73-.9 1.073-1.11.614.176 1.21.445 1.787.81.56.35.962.697 1.204 1.04.096.552.145 1.12.145 1.706Zm3.7-.906-.05 3.569c-.254.405-.55.757-.884 1.053l-.094-4.236c-.008-.506-.2-.882-.577-1.13l-1.298-.858.784-1.11 1.593 1.135c.247.171.405.412.477.721.041.171.058.458.05.86v-.004Zm5.814-.76c0 1.205-.495 2.37-1.486 3.494-.615.69-1.69 1.28-3.224 1.769l.64-1.424c.828-.188 1.453-.41 1.875-.665.372-.226.663-.562.872-1.01.2-.426.3-.882.3-1.367 0-.66-.206-.99-.62-.99h-2.364c-.318 0-.53-.028-.634-.082-.092-.042-.142-.134-.15-.276l-.05-1.098a3.09 3.09 0 0 0-.308-1.104L69.854 0c.18.25.27.556.27.916v.859c0 .53.077.796.231.796h2.685c.46 0 .765.122.915.364.109.18.163.5.163.96Zm2.333.383.395 5.933c-.171.452-.424.851-.759 1.198l-.508-5.676c.184-.535.475-1.02.872-1.455ZM76.27 1.97l.05.39c.026.141.099.213.22.213h4.095c.314 0 .559.133.734.401.147.226.22.493.22.803 0 1.371-.429 2.567-1.286 3.587-.619.736-1.572 1.275-2.86 1.618.142-.305.335-.746.577-1.323a4.006 4.006 0 0 0 1.68-.734c.565-.41.848-1.112.848-2.107 0-.744-.214-1.116-.64-1.116h-4.949a5.245 5.245 0 0 1 1.311-1.732Zm9.239 2.356c0 .351-.163.782-.49 1.292-.112.171-.422.59-.928 1.254l-.765.232C84.061 6 84.43 5.22 84.43 4.763c0-.392-.42-.817-1.26-1.272l-.81-.433c.034-.042.32-.42.86-1.135l.796.54c.995.672 1.493 1.293 1.493 1.862Zm2.096-2.447c.042.16.107.391.195.696h4.22c.72 0 1.08.63 1.08 1.888 0 .903-.37 1.852-1.11 2.847-.816 1.092-1.7 1.637-2.654 1.637-.514 0-.878-.131-1.091-.395-.172-.209-.347-.665-.527-1.367l-.602-2.39c-.163-.643-.466-1.036-.91-1.178.427-.603.893-1.182 1.4-1.738Zm4.045 1.825h-3.675l.772 3.261c.07.301.138.504.2.609a.523.523 0 0 0 .483.263c.72 0 1.34-.282 1.863-.847a2.847 2.847 0 0 0 .784-2c0-.54-.142-.968-.427-1.286Zm5.183 1.482c0 .31-.026 1.074-.076 2.295l-.734 1.299h-2.515c.138-.222.34-.598.603-1.13h1.787c.059-.493.088-.93.088-1.31 0-.623-.055-1.231-.163-1.825a5.596 5.596 0 0 0-1.813-1.411l.721-1.091c.711.38 1.378.915 2.001 1.605.067.418.1.94.1 1.568Zm7.713 2.782-.577 1.235c-.735-1.05-1.726-2.22-2.972-3.512a71.945 71.945 0 0 0-1.142-1.141c-.435.53-.648 1.187-.64 1.969.005.36.046.736.126 1.129h.834l-.527 1.129H97.98l.207-.602a7.88 7.88 0 0 1-.05-.734c0-.623.115-1.198.345-1.725.154-.347.468-.863.94-1.549l-1.555-1.248.703-.922c.698.527 1.597 1.332 2.696 2.415.301.292.709.71 1.223 1.254.293-.452.44-.926.44-1.424 0-.389-.095-.719-.283-.99l.96-1.242c.305.656.455 1.16.451 1.511-.004.406-.15.861-.439 1.367-.25.397-.504.795-.759 1.192a18.27 18.27 0 0 1 1.687 1.888Zm4.755-5.955c.03.213.048.33.056.35.042.143.118.214.226.214h2.56c.635 0 1.11.08 1.423.238.435.226.652.634.652 1.223v.81l-.063 3.198a3.48 3.48 0 0 1-.965 1.21l.056-4.151c.008-.933-.27-1.399-.834-1.399h-4.384a6.722 6.722 0 0 1 1.273-1.693Zm.464 2.377c-.017.367-.025.719-.025 1.053l-.031 2.503c-.234.485-.558.909-.972 1.273v-.056c.002-.286.014-1.492.037-3.62.276-.36.607-.744.991-1.153ZM120 3.895c0 1.204-.496 2.368-1.486 3.493-.615.69-1.69 1.28-3.224 1.769l.64-1.424c.828-.188 1.453-.41 1.875-.665.372-.226.663-.562.872-1.01.2-.426.3-.882.3-1.367 0-.66-.206-.99-.62-.99h-2.365c-.317 0-.529-.028-.633-.082-.092-.042-.142-.134-.15-.276l-.05-1.098a3.09 3.09 0 0 0-.308-1.104L115.735 0c.18.25.27.556.27.916v.859c0 .53.077.796.232.796h2.684c.46 0 .765.122.916.364.109.18.163.5.163.96Z"/></svg>
